public/assets/logo5.svg

<svg width="106" height="33" viewBox="0 0 106 33" fill="none" xmlns="http://www.w3.org/2000/svg">
<path fill-rule="evenodd" clip-rule="evenodd" d="M14.0484 29.8064C21.531 29.8064 27.5968 23.7406 27.5968 16.258C27.5968 8.77548 21.531 2.70966 14.0484 2.70966C6.5658 2.70966 0.5 8.77548 0.5 16.258C0.5 23.7406 6.5658 29.8064 14.0484 29.8064ZM18.275 9.02107C18.4807 8.29027 17.7716 7.85813 17.1239 8.31957L8.08243 14.7607C7.38002 15.2611 7.4905 16.258 8.2484 16.258H10.6293V16.2396H15.2694L11.4886 17.5736L9.82177 23.495C9.61604 24.2258 10.3252 24.658 10.9729 24.1965L20.0144 17.7555C20.7168 17.2551 20.6062 16.258 19.8484 16.258H16.2379L18.275 9.02107Z" fill="#828282"/>
<path d="M87.8846 11.4293C88.1881 11.7075 88.5548 11.8466 88.9848 11.8466C89.4273 11.8466 89.794 11.7075 90.0849 11.4293C90.3757 11.1511 90.5211 10.7844 90.5211 10.3292C90.5211 9.87396 90.3757 9.50725 90.0849 9.22906C89.794 8.95086 89.4273 8.81177 88.9848 8.81177C88.5548 8.81177 88.1881 8.95086 87.8846 9.22906C87.5938 9.50725 87.4484 9.87396 87.4484 10.3292C87.4484 10.7844 87.5938 11.1511 87.8846 11.4293Z" fill="#0E0E0E"/>
<path fill-rule="evenodd" clip-rule="evenodd" d="M42.489 21.9374C41.8947 22.2156 41.1992 22.3547 40.4026 22.3547H34.3708V9.07732H40.3267C41.136 9.07732 41.8378 9.21641 42.4321 9.49461C43.0391 9.76016 43.507 10.1458 43.8358 10.6516C44.1772 11.1448 44.3479 11.7391 44.3479 12.4346V12.6243C44.3479 13.2313 44.2341 13.7307 44.0065 14.1227C43.7788 14.5021 43.507 14.7993 43.1908 15.0142C42.8874 15.2165 42.5965 15.362 42.3183 15.4505V15.7919C42.5965 15.8678 42.9 16.0132 43.2288 16.2282C43.5576 16.4305 43.8358 16.7276 44.0634 17.1196C44.3036 17.5116 44.4238 18.0238 44.4238 18.656V18.8457C44.4238 19.5791 44.253 20.2114 43.9116 20.7425C43.5702 21.2609 43.096 21.6593 42.489 21.9374ZM41.4268 17.2145C41.0981 16.9489 40.6555 16.8162 40.0991 16.8162H36.8746V20.0786H40.0991C40.6428 20.0786 41.0791 19.9458 41.4079 19.6803C41.7493 19.4147 41.92 19.0354 41.92 18.5422V18.3525C41.92 17.8594 41.7556 17.48 41.4268 17.2145ZM41.351 11.7518C41.0222 11.4862 40.5923 11.3534 40.0612 11.3534H36.8746V14.54H40.0612C40.5796 14.54 41.0032 14.4073 41.332 14.1417C41.6734 13.8762 41.8441 13.5094 41.8441 13.0416V12.8519C41.8441 12.3714 41.6798 12.0047 41.351 11.7518Z" fill="#0E0E0E"/>
<path fill-rule="evenodd" clip-rule="evenodd" d="M50.0704 22.6203C49.1346 22.6203 48.2937 22.4306 47.5477 22.0513C46.8016 21.6719 46.2136 21.1218 45.7837 20.4011C45.3537 19.6803 45.1387 18.8141 45.1387 17.8025V17.499C45.1387 16.4874 45.3537 15.6212 45.7837 14.9004C46.2136 14.1796 46.8016 13.6296 47.5477 13.2502C48.2937 12.8709 49.1346 12.6812 50.0704 12.6812C51.0061 12.6812 51.847 12.8709 52.5931 13.2502C53.3391 13.6296 53.9271 14.1796 54.3571 14.9004C54.787 15.6212 55.002 16.4874 55.002 17.499V17.8025C55.002 18.8141 54.787 19.6803 54.3571 20.4011C53.9271 21.1218 53.3391 21.6719 52.5931 22.0513C51.847 22.4306 51.0061 22.6203 50.0704 22.6203ZM50.0704 20.4959C50.8038 20.4959 51.4107 20.262 51.8913 19.7941C52.3718 19.3136 52.612 18.6307 52.612 17.7456V17.5559C52.612 16.6707 52.3718 15.9942 51.8913 15.5263C51.4234 15.0458 50.8164 14.8056 50.0704 14.8056C49.3369 14.8056 48.73 15.0458 48.2495 15.5263C47.7689 15.9942 47.5287 16.6707 47.5287 17.5559V17.7456C47.5287 18.6307 47.7689 19.3136 48.2495 19.7941C48.73 20.262 49.3369 20.4959 50.0704 20.4959Z" fill="#0E0E0E"/>
<path d="M63.9534 22.3547C63.3338 22.3547 62.828 22.1651 62.436 21.7857C62.0566 21.3937 61.867 20.8753 61.867 20.2303V14.9194H59.515V12.9467H61.867V10.0257H64.2569V12.9467H66.8365V14.9194H64.2569V19.8131C64.2569 20.1924 64.4339 20.3821 64.788 20.3821H66.6089V22.3547H63.9534Z" fill="#0E0E0E"/>
<path d="M68.943 21.8236C69.727 22.3547 70.7323 22.6203 71.9588 22.6203C73.1601 22.6203 74.1148 22.3547 74.823 21.8236C75.5437 21.2799 75.9041 20.5149 75.9041 19.5285C75.9041 18.871 75.7334 18.3525 75.392 17.9732C75.0632 17.5812 74.608 17.284 74.0263 17.0817C73.4573 16.8667 72.8187 16.696 72.1106 16.5696L71.5795 16.4747C71.1495 16.3989 70.8081 16.2914 70.5552 16.1523C70.3023 16.0005 70.1759 15.7729 70.1759 15.4694C70.1759 15.1913 70.296 14.9763 70.5363 14.8245C70.7765 14.6602 71.1243 14.578 71.5795 14.578C72.0347 14.578 72.4141 14.6791 72.7175 14.8814C73.0337 15.0838 73.2423 15.4252 73.3435 15.9057L75.5627 15.2229C75.3477 14.4642 74.8925 13.8509 74.197 13.383C73.5015 12.9151 72.629 12.6812 71.5795 12.6812C70.4667 12.6812 69.5689 12.9341 68.8861 13.4399C68.2032 13.9331 67.8618 14.6475 67.8618 15.5833C67.8618 16.2029 68.0262 16.7087 68.355 17.1007C68.6837 17.4927 69.12 17.8025 69.6637 18.0301C70.2075 18.2451 70.8081 18.4158 71.4657 18.5422L71.9968 18.6371C72.5532 18.7382 72.9578 18.871 73.2107 19.0354C73.4636 19.1871 73.5901 19.4084 73.5901 19.6993C73.5901 19.9901 73.4573 20.2367 73.1917 20.439C72.9262 20.6287 72.5152 20.7235 71.9588 20.7235C71.5921 20.7235 71.2507 20.6729 70.9346 20.5718C70.6311 20.458 70.3719 20.2746 70.1569 20.0217C69.9546 19.7688 69.8092 19.4211 69.7206 18.9785L67.5204 19.5475C67.6848 20.5338 68.159 21.2925 68.943 21.8236Z" fill="#0E0E0E"/>
<path d="M80.0469 15.5453C79.6423 16.0258 79.44 16.7023 79.44 17.5749V22.3547H77.05V9.07732H79.44V14.1038H79.7814C79.8826 13.9014 80.0406 13.6991 80.2556 13.4968C80.4706 13.2945 80.7551 13.1301 81.1091 13.0036C81.4759 12.8645 81.9374 12.795 82.4938 12.795C83.2272 12.795 83.8658 12.9657 84.4095 13.3071C84.9659 13.6359 85.3959 14.0974 85.6993 14.6918C86.0028 15.2734 86.1546 15.9563 86.1546 16.7403V22.3547H83.7646V16.93C83.7646 16.2218 83.5876 15.6907 83.2335 15.3367C82.8921 14.9826 82.3989 14.8056 81.754 14.8056C81.0206 14.8056 80.4516 15.0522 80.0469 15.5453Z" fill="#0E0E0E"/>
<path d="M101.094 21.7857C100.715 21.3937 100.525 20.8753 100.525 20.2303V14.9194H95.825V22.3547H93.4351V14.9194H91.0451V12.9467H93.4351V11.2017C93.4351 10.5568 93.6247 10.0447 94.0041 9.66532C94.3961 9.27332 94.9019 9.07732 95.5215 9.07732H97.9873V11.05H96.3561C96.002 11.05 95.825 11.2396 95.825 11.619V12.9467H100.525V10.0257H102.915V12.9467H105.494V14.9194H102.915V19.8131C102.915 20.1924 103.092 20.3821 103.446 20.3821H105.267V22.3547H102.611C101.992 22.3547 101.486 22.1651 101.094 21.7857Z" fill="#0E0E0E"/>
<path d="M87.7898 12.9467V22.3547H90.1797V12.9467H87.7898Z" fill="#0E0E0E"/>
<path d="M56.2596 9.07732V22.3547H58.6496V9.07732H56.2596Z" fill="#0E0E0E"/>
</svg>

<svg xmlns="http://www.w3.org/2000/svg" width="106" height="33" fill="none" viewBox="0 0 106 33"><path fill="#828282" fill-rule="evenodd" d="M14.048 29.806c7.483 0 13.549-6.065 13.549-13.548S21.53 2.71 14.048 2.71.5 8.775.5 16.258s6.066 13.548 13.548 13.548m4.227-20.785c.206-.73-.503-1.163-1.151-.701l-9.042 6.44c-.702.501-.592 1.498.166 1.498h2.381v-.018h4.64l-3.78 1.334-1.667 5.921c-.206.73.503 1.163 1.15.701l9.042-6.44c.703-.5.592-1.498-.166-1.498h-3.61z" clip-rule="evenodd"/><path fill="#0e0e0e" d="M87.885 11.43q.455.416 1.1.417.663 0 1.1-.418.436-.417.436-1.1t-.436-1.1-1.1-.417q-.645 0-1.1.417-.437.417-.437 1.1t.437 1.1"/><path fill="#0e0e0e" fill-rule="evenodd" d="M42.489 21.937q-.892.418-2.086.418H34.37V9.077h5.956q1.213 0 2.105.418.91.397 1.404 1.157.512.74.512 1.783v.19q0 .91-.341 1.498-.342.57-.816.891a3.5 3.5 0 0 1-.873.437v.34q.418.115.91.437.495.304.835.892.36.588.36 1.536v.19q0 1.1-.511 1.896a3.3 3.3 0 0 1-1.423 1.195m-1.062-4.722q-.493-.399-1.328-.399h-3.224v3.263h3.224q.816 0 1.309-.399.512-.398.512-1.138v-.19q0-.74-.493-1.137m-.076-5.463q-.493-.399-1.29-.399h-3.186v3.187h3.186q.778 0 1.271-.398.512-.4.512-1.1v-.19q0-.72-.493-1.1m8.72 10.868q-1.403 0-2.522-.569a4.27 4.27 0 0 1-1.764-1.65q-.645-1.08-.645-2.599V17.5q0-1.518.645-2.599a4.27 4.27 0 0 1 1.764-1.65q1.12-.57 2.522-.569 1.404 0 2.523.57 1.119.569 1.764 1.65t.645 2.598v.303q0 1.518-.645 2.6a4.27 4.27 0 0 1-1.764 1.65q-1.119.568-2.523.568m0-2.124q1.1 0 1.821-.702.72-.72.721-2.048v-.19q0-1.328-.72-2.03-.703-.72-1.822-.72-1.1 0-1.82.72-.721.702-.721 2.03v.19q0 1.328.72 2.048.721.702 1.821.702" clip-rule="evenodd"/><path fill="#0e0e0e" d="M63.953 22.355q-.93 0-1.517-.57-.57-.587-.569-1.555v-5.31h-2.352v-1.973h2.352v-2.921h2.39v2.92h2.58v1.973h-2.58v4.894q0 .57.531.57h1.82v1.972zm4.99-.531q1.177.796 3.016.796 1.802 0 2.864-.796 1.08-.816 1.081-2.296 0-.985-.512-1.555-.493-.588-1.366-.891a11 11 0 0 0-1.915-.512l-.532-.095q-.644-.114-1.024-.323a.75.75 0 0 1-.38-.683q0-.417.361-.644.36-.247 1.043-.247t1.139.303q.474.304.626 1.025l2.219-.683q-.322-1.138-1.366-1.84-1.043-.702-2.618-.702-1.668 0-2.693.759-1.024.74-1.024 2.143 0 .93.493 1.518.493.587 1.309.93.815.321 1.802.511l.53.095q.836.152 1.215.398a.73.73 0 0 1 .38.664q0 .437-.4.74-.398.285-1.232.285-.55 0-1.024-.152a1.87 1.87 0 0 1-.778-.55q-.303-.379-.436-1.043l-2.2.569q.246 1.48 1.422 2.276m11.104-6.279q-.607.72-.607 2.03v4.78h-2.39V9.077h2.39v5.027h.341a2.2 2.2 0 0 1 .475-.607q.323-.304.853-.493.55-.21 1.385-.209 1.1 0 1.915.512.835.493 1.29 1.385.456.872.456 2.048v5.615h-2.39V16.93q0-1.063-.531-1.593-.513-.531-1.48-.531-1.1 0-1.707.74m21.047 6.24q-.569-.587-.569-1.556v-5.31h-4.7v7.435h-2.39v-7.436h-2.39v-1.972h2.39v-1.745q0-.967.57-1.537.587-.588 1.517-.588h2.465v1.973h-1.63q-.532 0-.532.569v1.328h4.7v-2.921h2.39v2.92h2.579v1.973h-2.579v4.894q0 .57.531.57h1.821v1.972h-2.656q-.929 0-1.517-.57M87.79 12.947v9.408h2.39v-9.408zm-31.53-3.87v13.278h2.39V9.077z"/></svg>
